X:286
T:Palm Tree
Z: id:dc-reel-266
M:C
L:1/8
K:D Major
AFF2 Adfa|g2ag fddf|eAA2 d=cAF|G2AF GFe=c|!
AFF2 Adfa|g2ag fddf|eaa2 aged|cAGE FDD2:|!
aff2 dff2|gee2 ceAG|F2AF GBed|ca^ga bagb|!
aff2 dff2|gee2 ceAG|F2AF GBed|cAGE FDD2:|!

